icons/timer-filled.svg

<svg width="24" height="24" viewBox="0 0 24 24" fill="none" xmlns="http://www.w3.org/2000/svg">
<path fill-rule="evenodd" clip-rule="evenodd" d="M12 22C9.87827 22 7.84344 21.1571 6.34315 19.6569C4.84285 18.1566 4 16.1217 4 14C4 11.8783 4.84285 9.84344 6.34315 8.34315C7.84344 6.84285 9.87827 6 12 6C14.1217 6 16.1566 6.84285 17.6569 8.34315C19.1571 9.84344 20 11.8783 20 14C20 16.1217 19.1571 18.1566 17.6569 19.6569C16.1566 21.1571 14.1217 22 12 22ZM10.995 11V15C11.007 15.667 11.343 16 12.003 16C12.663 16 12.993 15.667 12.993 15V11C12.993 10.333 12.663 10 12 10C11.337 10 11.003 10.333 10.995 11ZM10 2H13.995C14.667 2.006 15.003 2.341 15.003 3.005C15.003 3.668 14.667 4 13.995 4H10C9.333 4 9 3.668 9 3.005C9 2.341 9.333 2.006 10 2ZM19.121 3.707L20.532 5.118C21.002 5.598 21.003 6.072 20.534 6.541C20.065 7.011 19.594 7.007 19.118 6.532L17.708 5.122C17.236 4.65 17.235 4.18 17.704 3.71C18.174 3.241 18.646 3.24 19.121 3.707Z" fill="#3A3A47"/>
</svg>

<svg xmlns="http://www.w3.org/2000/svg" width="24" height="24" viewBox="0 0 24 24">
    <path fill="#3A3A47" fill-rule="evenodd" d="M12 6a8 8 0 1 1 0 16 8 8 0 0 1 0-16zm0 4c-.615 0-.948.287-.998.862l-.007.138v4c.012.667.348 1 1.008 1 .613 0 .942-.287.986-.862l.005-.138v-4c0-.667-.331-1-.994-1zm7.121-6.293l1.411 1.411c.47.48.471.954.002 1.423-.469.47-.94.466-1.416-.009l-1.41-1.41c-.472-.472-.473-.942-.004-1.412.47-.469.942-.47 1.417-.003zM13.995 2c.672.006 1.008.341 1.008 1.005 0 .663-.336.995-1.008.995H10c-.667 0-1-.332-1-.995 0-.664.333-.999 1-1.005h3.995z"/>
</svg>
